X:1
T:[ID 6-59]
T:[ID 6-59]
T:Bezeichnung standardisiert: Polonaise Polonoise 33.
T:Urheber unbekannt Datum in der hier transkribierten schriftlichen Quelle: 1775
C:Urheber unbekannt
C:Datum in der hier transkribierten schriftlichen Quelle: 1775
L:1/8
M:3/4
K:G
V:1 treble 
V:1
 B>c Bedc | B>c Bedc | BB/G/ AA/F/ GB | AA/G/ G2 F2 :: F>G FAGF | G>A GBAG | F>G FAGF | G>A GBAG | %8
 BB/G/ AA/F/ GG/B/ | A/c/G/D/ C2 B,2 :| %10

